X:14
T: This Is no Mine Ain House
N: HA014
O: Europa, Mitteleuropa, Deutschland
N: die beiden Formteile aw sind identisch, Vorschlge weggelassen
M: 2/2
L: 1/16
K: Bb
f2 | d2f2f2f2d4c2
b2 | gab2f2d2e2c2c2
f2 | d2f2f2f2d4c2
b2 | gab2f3ed2B2B2
f2 | d2f2f2b2g2b2f2
d2 | e2g2f2d2g2c2c2
f2 | d2f2f2b2g2b2f2
d2 | e3gf2e2d2B2B2

@@@ Tune index: 7239
